X:1     
B:Broadwood, L, 1893, English County Songs, London, Leadenhall Press
S:Mr Huttley
Z: Lucy Broadwood
T:Young Herchard
F: http://www.folkinfo.org/songs
M:3/8     %Meter
L:1/16     %
K:G
D2 |G4 G2 |B4 B2 |A4 A2 |G2 z2 
w:One Zun-day morn, as I've heerd zay, 
G2 |B4 B2 |d2 d2 d2 |c4 c2 |B4 
w:Young Her-chard mount-ed his Dob-bin Gray, 
B2 |d2 d2 B2 |d4 B2 |d4 B2 |d4 
w:And o-ver the hills he rode a-meeun,
B2 |e2 e2 d2 |c4 B2 |A4 G2 |F4 
w:A-coort-in' the pas-son's daugh-ter Jeeun. 
DD |G3 A G2 |B3 c B2 |A3 B A2 | HG4 |]
w:With my doom-ble-dum, dol-ly-kin, doom-ble-dum day.